X: 4171
M: C|
L: 1/8
K: D
|:\
d2(fd) adfd |
ceAe ceAe |\
[1 d2(fd) adfd | (3(ABc) (eg) (fd)d2 :|\
[2 fdec dAFA | BGAF D/D/D D2 |]


